icons/sparkle-24.svg

<svg width="25" height="25" viewBox="0 0 25 25" fill="none" xmlns="http://www.w3.org/2000/svg">
<path d="M11.2246 0.599469C11.5006 -0.154432 12.5672 -0.154313 12.8434 0.599469L14.761 5.8371C15.3507 7.44782 16.6202 8.7172 18.2309 9.30697L23.4685 11.2246C24.2226 11.5006 24.2226 12.5674 23.4685 12.8434L18.2309 14.761C16.6202 15.3508 15.3508 16.6202 14.761 18.2309L12.8434 23.4685C12.5674 24.2226 11.5006 24.2226 11.2246 23.4685L9.30697 18.2309C8.7172 16.6202 7.44782 15.3507 5.8371 14.761L0.599469 12.8434C-0.154303 12.5672 -0.154441 11.5006 0.599469 11.2246L5.8371 9.30697C7.44791 8.71724 8.71724 7.44791 9.30697 5.8371L11.2246 0.599469ZM10.7202 6.35518C9.97826 8.38141 8.38141 9.97826 6.35518 10.7202L2.76386 12.0345L6.35518 13.3488C8.38146 14.0908 9.97833 15.6875 10.7202 17.7138L12.0345 21.3032L13.3488 17.7138C14.0907 15.6874 15.6874 14.0907 17.7138 13.3488L21.3032 12.0345L17.7138 10.7202C15.6875 9.97833 14.0908 8.38146 13.3488 6.35518L12.0345 2.76386L10.7202 6.35518Z" fill="black"/>
</svg>

<svg xmlns="http://www.w3.org/2000/svg" width="25" height="25" viewBox="0 0 25 25"><path d="M11.225.599c.276-.753 1.342-.753 1.618 0l1.918 5.238a5.83 5.83 0 0 0 3.47 3.47l5.237 1.918c.755.276.755 1.342 0 1.618l-5.237 1.918a5.83 5.83 0 0 0-3.47 3.47l-1.918 5.237c-.276.755-1.342.755-1.618 0l-1.918-5.237a5.83 5.83 0 0 0-3.47-3.47L.599 12.843c-.753-.276-.753-1.342 0-1.618l5.238-1.918a5.83 5.83 0 0 0 3.47-3.47L11.225.599Zm-.505 5.756a7.336 7.336 0 0 1-4.365 4.365l-3.591 1.314 3.591 1.315a7.336 7.336 0 0 1 4.365 4.365l1.314 3.589 1.315-3.589a7.33 7.33 0 0 1 4.365-4.365l3.589-1.315-3.589-1.314a7.336 7.336 0 0 1-4.365-4.365l-1.315-3.591-1.314 3.591Z"/></svg>
